X:1
T:There’s a Wonderful Star
T:There’s a Wonderful Star
T:Adam Geibel
T:Flora Kirkland, 1901
T:Public Domain Courtesy of the Cyber Hymnal™
T:Public Domain Courtesy of the Cyber Hymnal™
C:Adam Geibel
Z:Public Domain
Z:Courtesy of the Cyber Hymnal™
%%score ( 1 2 ) ( 3 4 )
L:1/8
Q:1/4=95
M:4/4
K:C
V:1 treble 
V:2 treble 
V:3 bass 
V:4 bass 
V:1
 [CE][DF] | [EG]2 [Ee][EB] (dc)[FB][FA] | [EG]2 [^D^F][DA] [EG]2 [EG][EG] | %3
w: 1.~There’s a|won- der- ful star * in the|cold win- ter sky, And it|
w: 2.~There’s a|won- der- ful vi- * sion of|an- gels and light, And a|
w: 3.~There’s a|won- der- ful Child * in a|cat- tle shed low, Rest- ing|
 [FG]2 [FB][FA] [DG]2 [B,D][B,F] | [CE]6 [CE][DF] | [EG]2 [Ee][EB] (dc)[FB][FA] | %6
w: shines o- ver Beth- le- hem|town. It was|ne’er seen be- fore, * un- til|
w: ca- rol o’er Beth- le- hem’s|hill. Such a|car- ol as nev- * er by|
w: here a- mid ox- en and|kine; And the|glo- ry of Hea- * ven shines|
 [EG]2 [^D^F][DA] [EG]2 [EG][EA] | [DB]2 [DB][DB] (dc)[=FB][Fc] | (d4 !fermata!G4) || %9
w: o- ver the door Of a|sta- ble its glo- * ry shone|down. *|
w: mor- tal was heard, Till the|an- gel host chant- * ed, “Good-|will.” *|
w: bright on His brow, For ’tis|Je- sus, the In- * fant di-|vine! *|
[M:6/8]"^Refrain" z"^Boys. Unison." ([CEG][CEG]) [CEG][CEG][CEG] | z ([CEA][CEA] [CEA][CEA][CEA]) | %11
w: ||
w: ||
w: ||
 z ([CEA][CEA]) [CEA][CEA][CEA] | z ([DFB][DFB] [DFB][DFB][DFB]) | z ([DFB][DFB]) [DFB][DFB][DFB] | %14
w: |||
w: |||
w: |||
 z ([FGB][FGB]) [FGB][FGB][FGB] | z [DFB][DFB] z [B,DG][B,DG] | z ([CEG][CEG] [CEG][CEG][CEG]) | %17
w: |||
w: |||
w: |||
"^Girls. Unison." G3 GEG | A4 AA | _B4 A^G | A3- A2 z |"^All. Unison" [Cc]3 [Cc][B,B][Cc] | %22
w: |||||
w: O won- der- ful|King in the|cat- tle shed|low! *|O won- der- ful|
w: |||||
 ([Ee]4 c)A | [B,FG]BA [B,G]FD | C3- ([C,E,][D,F,][C,E,C]) |] %25
w: |||
w: night, * O|won- der- ful won- der- ful|night! * * *|
w: |||
V:2
 x2 | x4 F2 x2 | x8 | x8 | x8 | x4 F2 x2 | x8 | x4 ^F2 x2 | F8 ||[M:6/8] x6 | x6 | x6 | x6 | x6 | %14
 x6 | x6 | x6 | x6 | x6 | x6 | x6 | x6 | x6 | x6 | [C,E,] x5 |] %25
V:3
 [C,G,][C,G,] | [C,G,]2 [C,G,][C,G,] [C,A,]2 [C,A,][C,B,] | %2
w: ||
 [C,C]2 [C,A,][C,^F,] [C,G,]2 [C,C][C,C] | [G,B,]2 [G,D][G,C] [G,B,]2 [G,,G,][G,,G,] | %4
w: ||
 [C,G,]6 [C,G,][C,G,] | [C,G,]2 [C,G,][C,^G,] [C,A,]2 [C,A,][C,B,] | %6
w: ||
 [C,C]2 [C,A,][C,^F,] [C,G,]2 [C,G,][C,G,] | [D,G,]2 [D,G,][D,G,] [D,A,]2 [D,A,][D,A,] | [G,B,]8 || %9
w: |||
[M:6/8] G,3 G,E,G, | A,3- A,2 z | G,3 G,E,G, | B,3- B,2 z | [G,B,]3 B,G,B, | D4 CB, | %15
w: O, won- der- ful|star, *|oh won- der- ful|song! *|O vi- sion of|an- gels, O|
 CB,A, G,D,F, | E,3- E,2 z | ([C,,C,][E,G,C][E,G,C]) [E,G,C][E,G,C][E,G,C] | %18
w: vi- sion of an- gels in|light! *||
 ([C,,C,][E,G,C][E,G,C]) [E,G,C][E,G,C][E,G,C] | %19
w: |
 ([C,,C,][C,E,_B,][C,E,B,]) [C,E,B,][C,E,B,][C,E,B,] | %20
w: |
 (F,,[C,F,A,][C,F,A,] [C,F,A,][C,F,A,][C,F,A,]) | %21
w: |
 (^F,,[^D,^F,A,][D,F,A,]) [D,F,A,][D,F,A,][D,F,A,] | (G,,[E,G,C][E,G,C]) [E,G,C]CA, | %23
w: ||
 [G,,D,G,]B,A, [G,,D,G,]F,D, | [C,,E,]3- [C,,E,] x2 |] %25
w: ||
V:4
 x2 | x8 | x8 | x8 | x8 | x8 | x8 | x8 | x8 ||[M:6/8] C,6 | C,6 | C,6 | D,6 | x6 | x6 | G,3 G,,3 | %16
 C,6 | x6 | x6 | x6 | x6 | x6 | x6 | x6 | x6 |] %25

